arb/images/icons/tel-foot.svg

<svg width="24" height="21" viewBox="0 0 24 21" fill="none" xmlns="http://www.w3.org/2000/svg">
<path d="M21.8113 0.398576C21.5304 0.419012 21.2547 0.484911 20.9949 0.593701H20.9914C20.742 0.692576 19.5564 1.19133 17.7539 1.94733L11.2947 4.6677C6.65979 6.61895 2.10367 8.54045 2.10367 8.54045L2.15792 8.51945C2.15792 8.51945 1.84379 8.6227 1.51567 8.84758C1.31295 8.97657 1.13852 9.14535 1.00292 9.3437C0.841918 9.57995 0.712418 9.94133 0.760543 10.315C0.839293 10.9467 1.24879 11.3256 1.54279 11.5347C1.84029 11.7465 2.12379 11.8453 2.12379 11.8453H2.13079L6.40342 13.2847C6.59504 13.8998 7.70542 17.5503 7.97229 18.3912C8.12979 18.8934 8.28292 19.2076 8.47454 19.4473C8.56729 19.5698 8.67579 19.6722 8.80617 19.7545C8.87395 19.7939 8.94621 19.825 9.02142 19.8472L8.97767 19.8367C8.99079 19.8402 9.00129 19.8507 9.01092 19.8542C9.04592 19.8638 9.06954 19.8673 9.11417 19.8743C9.79054 20.0791 10.3339 19.6591 10.3339 19.6591L10.3645 19.6346L12.8872 17.3377L17.1152 20.5813L17.2114 20.6224C18.0925 21.0092 18.985 20.794 19.4567 20.4142C19.9318 20.0318 20.1164 19.5427 20.1164 19.5427L20.147 19.464L23.4143 2.72608C23.507 2.31308 23.5307 1.92633 23.4283 1.55095C23.3227 1.17105 23.079 0.844307 22.7449 0.634826C22.4644 0.464302 22.1391 0.381994 21.8113 0.398576ZM21.7229 2.19233C21.7194 2.24745 21.7299 2.24133 21.7054 2.3472V2.35683L18.4688 18.9206C18.4548 18.9442 18.4312 18.9958 18.3664 19.0475C18.2982 19.1017 18.2439 19.1358 17.9595 19.023L12.7883 15.0583L9.66454 17.9056L10.3208 13.7143L18.7698 5.83933C19.118 5.51558 19.0017 5.44733 19.0017 5.44733C19.0262 5.05008 18.4758 5.33095 18.4758 5.33095L7.82179 11.9311L7.81829 11.9136L2.71179 10.1942V10.1907L2.69867 10.1881C2.70762 10.1851 2.71639 10.1816 2.72492 10.1776L2.75292 10.1636L2.78004 10.154C2.78004 10.154 7.33967 8.23245 11.9745 6.2812C14.295 5.30383 16.633 4.31945 18.4312 3.55995C20.2293 2.80483 21.5584 2.25095 21.6337 2.2212C21.7054 2.1932 21.6713 2.1932 21.7229 2.1932V2.19233Z" fill="#687A95"/>
</svg>

<svg width="24" height="21" fill="none" xmlns="http://www.w3.org/2000/svg"><path d="M21.811.399a2.59 2.59 0 00-.816.195h-.004c-.249.099-1.435.597-3.237 1.353l-6.46 2.72-9.19 3.873.054-.02s-.314.103-.642.328a1.776 1.776 0 00-.513.496c-.161.236-.29.597-.242.971.078.632.488 1.01.782 1.22.297.211.58.31.58.31h.008l4.272 1.44c.192.615 1.302 4.265 1.57 5.106.157.502.31.817.502 1.056.092.123.2.225.331.308.068.039.14.07.215.092l-.043-.01c.013.003.023.014.033.017.035.01.059.013.103.02.677.205 1.22-.215 1.22-.215l.03-.024 2.523-2.297 4.228 3.243.096.041c.882.387 1.774.172 2.246-.208.475-.382.66-.871.66-.871l.03-.079 3.267-16.738c.093-.413.117-.8.014-1.175a1.581 1.581 0 00-.683-.916 1.638 1.638 0 00-.934-.236zm-.088 1.793c-.004.055.007.05-.018.155v.01L18.47 18.92c-.014.023-.038.075-.103.127-.068.054-.122.088-.407-.025l-5.17-3.965-3.124 2.848.656-4.192L18.77 5.84c.348-.323.232-.392.232-.392.024-.397-.526-.116-.526-.116l-10.654 6.6-.004-.017-5.106-1.72v-.003l-.013-.003a.246.246 0 00.026-.01l.028-.014.027-.01s4.56-1.922 9.195-3.873c2.32-.977 4.658-1.962 6.456-2.721a702.817 702.817 0 013.203-1.339c.071-.028.037-.028.089-.028z" fill="#687A95"/></svg>
